usr/share/icons/biglinux-icons-material/22/actions/preview-render-on.svg

<svg xmlns="http://www.w3.org/2000/svg" viewBox="0 0 22 22"><path d="M11 3c-4.432 0-8 3.568-8 8s3.568 8 8 8 8-3.568 8-8-3.568-8-8-8zm0 1c3.878 0 7 3.122 7 7s-3.122 7-7 7-7-3.122-7-7 3.122-7 7-7zm0 4v6l4-3-4-3z" style="fill:currentColor;fill-opacity:1;stroke:none;color:#dedede"/><path d="M10 8a3 3 0 0 0-3 3 3 3 0 0 0 3 3V8z" style="fill:#d24d57"/></svg>

<svg xmlns="http://www.w3.org/2000/svg" viewBox="0 0 22 22">
  <defs id="defs3051">
    <style type="text/css" id="current-color-scheme">
      .ColorScheme-Text {
        color:#363636;
      }
      </style>
  </defs>
 <path 
     style="fill:currentColor;fill-opacity:1;stroke:none" 
     d="M 11 3 C 6.568 3 3 6.568 3 11 C 3 15.432 6.568 19 11 19 C 15.432 19 19 15.432 19 11 C 19 6.568 15.432 3 11 3 z M 11 4 C 14.878 4 18 7.122 18 11 C 18 14.878 14.878 18 11 18 C 7.122 18 4 14.878 4 11 C 4 7.122 7.122 4 11 4 z M 11 8 L 11 14 L 15 11 L 11 8 z "
	 class="ColorScheme-Text"
     />
 <path 
     style="fill:#d24d57"
     d="m 10,8 a 3,3 0 0 0 -3,3 3,3 0 0 0 3,3 l 0,-6 z"
     />
</svg>
